X:5100
T:The Centenary Jig
M:6/8
R:Jig
L:1/8
Q:180
C:Aidan Crossey
K:G
|:DGB BdB|BcB BdB|DGB BdB|ABA ABA|
DGB BdB|BcB BdB|ege dBG|DEF G3:||
|:Bdd gdB|ABA ABA|Bdd gdB|ABA DEF|
Bdd gdB|ABA ABA|Bdd edd|def g3:||
